X:255
T:Miss Campbell of Saddell's
C: Robert Mackintosh
B:RSCDS Coronation Book
Z:Nigel Gatherer
M:4/4
L:1/8
K:Bb
d/c/|B>dd>c BA B2|Ge/d/ c>B A<FF>c|d>ed>c B>AB>F|G>EC>F D<B, B,:|
B/c/|D>Bg>e cd/e/ f>d|B>G e/d/c/B/ A<FF>B|G>Ec>E FG/A/ B>D|\
EF/G/ F>E DB, B,B/c/|
de c<Af>d|B<Gc>B A<FF>B|G<Eg>e f>AB>F|G>EC>F D<B, B,|]
